svg/monochrome/user-arrows.svg

<svg xmlns="http://www.w3.org/2000/svg" data-name="Layer 1" viewBox="0 0 24 24"><path class="uim-quaternary" d="M6,16.5A3.5,3.5,0,1,1,9.5,13,3.50424,3.50424,0,0,1,6,16.5Z"/><path class="uim-tertiary" d="M8.64026 15.27179a3.452 3.452 0 0 1-5.28052 0A4.98821 4.98821 0 0 0 1 19.5a1 1 0 0 0 1 1h8a1 1 0 0 0 1-1A4.98821 4.98821 0 0 0 8.64026 15.27179zM18 16.5A3.5 3.5 0 1 1 21.5 13 3.50424 3.50424 0 0 1 18 16.5z"/><path class="uim-secondary" d="M20.64026,15.27179a3.452,3.452,0,0,1-5.28052,0A4.98821,4.98821,0,0,0,13,19.5a1,1,0,0,0,1,1h8a1,1,0,0,0,1-1A4.98821,4.98821,0,0,0,20.64026,15.27179Z"/><path class="uim-primary" d="M17.207,5.793l-2-2A.99989.99989,0,0,0,13.793,5.207l.293.293H9.91406l.293-.293A.99989.99989,0,0,0,8.793,3.793l-2,2a.99962.99962,0,0,0,0,1.41406l2,2A.99989.99989,0,0,0,10.207,7.793l-.293-.293h4.17188l-.293.293A.99989.99989,0,1,0,15.207,9.207l2-2A.99962.99962,0,0,0,17.207,5.793Z"/></svg>

<svg xmlns="http://www.w3.org/2000/svg" viewBox="0 0 24 24"><path class="uim-quaternary" d="M6 16.5A3.5 3.5 0 1 1 9.5 13 3.504 3.504 0 0 1 6 16.5Z"/><path class="uim-tertiary" d="M8.64 15.272a3.452 3.452 0 0 1-5.28 0A4.988 4.988 0 0 0 1 19.5a1 1 0 0 0 1 1h8a1 1 0 0 0 1-1 4.988 4.988 0 0 0-2.36-4.228zM18 16.5a3.5 3.5 0 1 1 3.5-3.5 3.504 3.504 0 0 1-3.5 3.5z"/><path class="uim-secondary" d="M20.64 15.272a3.452 3.452 0 0 1-5.28 0A4.988 4.988 0 0 0 13 19.5a1 1 0 0 0 1 1h8a1 1 0 0 0 1-1 4.988 4.988 0 0 0-2.36-4.228Z"/><path class="uim-primary" d="m17.207 5.793-2-2a1 1 0 0 0-1.414 1.414l.293.293H9.914l.293-.293a1 1 0 0 0-1.414-1.414l-2 2a1 1 0 0 0 0 1.414l2 2a1 1 0 0 0 1.414-1.414L9.914 7.5h4.172l-.293.293a1 1 0 1 0 1.414 1.414l2-2a1 1 0 0 0 0-1.414Z"/></svg>
